X: 30306
T: Old Man Dillon
R: jig
M: 6/8
K: Aminor
|:"Am"EA/4A/4A/A c2d|edc BcA|"G"BG/4G/4G/G dG/4G/4G/G|BcB BAG|
"Am"E2A c2d|ede a2g|"G"edc "Em"BdB|1 "Am"cA/4A/4A/A A2G:|2 "Am"cA/4A/4A/A A2^f||
|:"Am"ge^f g2a|ge^f gdc|"G"BG/4G/4G/G dG/4G/4G/G|BcB BAG|
"Am"EA/4A/4A/A c2d|ede a2g|"G"edc "Em"BdB|1 "Am"cA/4A/4A/A A2^f:|2 "Am"cA/4A/4A/A A3||

